!!!!SEGMENT: pl-wtm--iii-41-493_gold-artur--colorado-tango.krn
!!!cenid: 19xx:1
!!!COM: Gold, Artur
!!!COM-rismID: pe50044903
!!!CDT: 1897/03/17-1943
!!!CNT: Polish
!!!OTL: Colorado. Tango
!!!PDT:
!!!AGN: Secular
!!!YEC: Copyright 2022 Narodowy Instytut Fryderyka Chopina (https://polishscores.org)
!!!YEM: License CC-BY-4.0 (https://creativecommons.org/licenses/by/4.0)
!!!SMS-siglum: PL-Wtm
!!!SMS-shelfmark: III.41.493
!!!SMS-variant:
!!!SMS-altvar:
!!!SMS-shelfwork: W
!!!NIFC-rismSourceID: 1001134078
!!!NIFC-rismChildID: 1001134078
!!!NIFC-islandoraID: pl-wtm:19220
!!!URL-pdf-islandora: https://repozytorium.nifc.pl/islandora/object/pl-wtm%3A19220/datastream/PDF/view
!!!URL-scan: https://polish.musicsources.pl/pl/lokalizacje/galeria/druki-muzyczne/17401/2 @EN{Scan on Polish Music Sources Website} @PL{Skany w portalu Dziedzictwo Muzyki Polskiej w otwartym dostępie}
!!!IIIF:
!!!ONB-nifc:
!!!AIN: 2 piano
!!!key: D
**kern	**kern	**dynam
*part2	*part1	*part1
*staff2	*staff1	*
*ICklav	*ICklav	*
*Ipiano	*Ipiano	*
*I"PIANO.	*I"PIANO.	*
*I'pf	*I'pf	*
*clefF4	*clefG2	*
*k[b-]	*k[b-]	*
*D:	*D:	*
*M2/4	*M2/4	*
=1	=1	=1
8.DD/L 8.D/	8.r	mf
16F/Jk 16A/	16d/ 16f/ 16a/	.
8F/L 8A/	8d/ 8f/ 8a/	.
8AA/J	8r	.
=2	=2	=2
8.DD/L 8.D/	8.r	.
16F/Jk 16A/	16f/ 16a/	.
8F/L 8A/	8f/ 8a/	.
8AA/J	8r	.
=3	=3	=3
*	*^	*
!	!	!	!LO:DY:rj
2DD/ 2D/	2A/ 2a/	8.r	p
.	.	16d\ 16f\	.
.	.	8d\L 8f\	.
.	.	8d\J 8f\	.
=4	=4	=4	=4
2BBBn/ 2BBn/	2G#X/ 2g#X/	8.r	.
.	.	16d\ 16f\	.
.	.	8d\L 8f\	.
.	.	8d\J 8f\	.
*	*v	*v	*
!!LO:LB:g=original
=5	=5	=5
2AAA/ 2AA/	16r	.
.	16Gn/LL 16c#X/ 16e/ 16gn/	.
.	16G/ 16c#/ 16e/ 16g/	.
.	16G/JJ 16c#/ 16e/ 16g/	.
.	8G/L 8c#/ 8e/ 8g/	.
.	8A/J 8c#/ 8e/ 8a/	.
=6	=6	=6
*	*^	*
2DD/ 2D/	2F/ 2f/	8.r	.
.	.	16A\ 16d\	.
.	.	8A\L 8d\	.
.	.	8A\J 8d\	.
=7	=7	=7	=7
2GGG/ 2GG/	2d/ 2dd/	8.r	.
.	.	16g\ 16b-\	.
.	.	8g\L 8b-\	.
.	.	8g\J 8b-\	.
=8	=8	=8	=8
2FFF/ 2FF/	2A/ 2a/	8.r	.
.	.	16d\	.
.	.	8d\L	.
.	.	8d\J	.
*	*v	*v	*
=9	=9	=9
4BBB-/ 4BB-/	16r	.
.	16d/LL 16g#X/ 16dd/	f
.	16d/ 16g#/ 16dd/	.
.	16d/JJ 16g#/ 16dd/	.
4EEE/ 4EE/	8d/L 8g#/ 8dd/	.
.	8c#X/J 8g#/ 8cc#X/	.
!!LO:LB:g=original
=10	=10	=10
8AAA/L 8AA/	16e/LL 16a/ 16cc#X/ 16ee/	>
.	16A/	.
8GG/J 8G/	16B-/	.
.	16c#X/JJ	.
8FF/L 8F/	16d/LL	.
.	16e/	.
8EE/J 8E/	16f/	.
.	16g/JJ	]
=11	=11	=11
*	*^	*
2DD/ 2D/	2A/ 2a/	8.r	p
.	.	16d\ 16f\	.
.	.	8d\L 8f\	.
.	.	8d\J 8f\	.
=12	=12	=12	=12
2EE/ 2E/	2G#X/ 2g#X/	8.r	.
.	.	16B-\ 16d\ 16e\	.
.	.	8B-\L 8d\ 8e\	.
.	.	8B-\J 8d\ 8e\	.
*	*v	*v	*
=13	=13	=13
2AAA/ 2AA/	16r	.
!	!LO:SIC:s=16Gn/LL 16c#/ 16e/ 16gn/	!
.	16G/LL 16c/ 16e/ 16gn/	.
!	!LO:SIC:s=16G/ 16c#/ 16e/ 16g/	!
.	16G/ 16c/ 16e/ 16g/	.
!	!LO:SIC:s=16G/JJ 16c#/ 16e/ 16g/	!
.	16G/JJ 16c/ 16e/ 16g/	.
!	!LO:SIC:s=8G/L 8c#/ 8e/ 8g/	!
.	8G/L 8c/ 8e/ 8g/	.
!	!LO:SIC:s=8A/J 8c#/ 8e/ 8a/	!
.	8A/J 8c/ 8e/ 8a/	.
=14	=14	=14
*	*^	*
2DD/ 2D/	2F/ 2f/	8.r	.
.	.	16A\ 16d\	.
.	.	8A\L 8d\	.
.	.	8A\J 8d\	.
*	*v	*v	*
!!LO:LB:g=original
=15	=15	=15
8GGG/ 8GG/	16r	.
.	16b-\LL 16dd\	f
4D\ 4G\ 4B-\	16b-\ 16dd\	.
.	16b-\JJ 16dd\	.
.	8a\L 8cc\	.
8D\ 8G\ 8B-\	8g\J 8b-\	.
=16	=16	=16
8AAA/ 8AA/	16r	.
.	16f\LL 16a\	.
4D\ 4F\ 4A\	16f\ 16a\	.
.	16f\JJ 16a\	.
.	8e\L 8g\	.
8D\ 8F\ 8A\	8d\J 8f\	.
=17	=17	=17
8BBB-/ 8BB-/	16r	.
.	16d/LL 16e/	p
4D\ 4E\ 4G#X\	16d/ 16e/	.
.	16d/JJ 16e/	.
.	8d/L 8f/	.
8D\ 8E\ 8G#\	8d/J 8e/	.
=18	=18	=18
*^	*^	*
!	!	!LO:TX:t=P:problem:klamra łukowa i 3	!	!
2AA\ 2A\	4E/	12a/L	[4c#X\ [4e\	>
.	.	12a/	.	.
.	.	12e/J	.	.
.	4G/	8c#/L] 8a/	4e\]	.
.	.	8a/J	.	]
*v	*v	*	*	*
*	*v	*v	*
=19||	=19||	=19||
*k[f#c#]	*k[f#c#]	*
*	*^	*
!	!LO:N:vis=4	!	!
8DD/L 8D/	2d/ 2dd/	8.r	p
8r	.	.	.
.	.	16f#\ 16a\	<
8r	.	8f#\ 8a\	.
8AAA/J 8AA/	.	8r	[
*	*v	*v	*
!!LO:LB:g=original
=20	=20	=20
!	!LO:TX:t=P:problem:klamra łukowa i 3	!
8DD/L 8D/	12d/L 12dd/	>
.	12e/ 12a/ 12ee/	.
8r	.	.
.	12d/J 12f#/ 12a/ 12dd/	.
8r	12c#/L 12f#/ 12a/ 12cc#/	.
!	!LO:TX:t=P:problem:klamra łukowa i 3	!
.	12d/ 12f#/ 12a/ 12dd/	.
8AAA/J 8AA/	.	.
.	24r	.
.	24B/Jk 24b/	.
=21	=21	=21
*	*^	*
8EE/L 8E/	2c#/ 2cc#/	8.r	.
8r	.	.	.
.	.	16e\ 16g\	]
8r	.	8e\ 8g\	.
8AAA/J 8AA/	.	8r	.
=22	=22	=22	=22
8EE/L 8E/	2G/ 2g/	8.r	.
8r	.	.	.
.	.	16A\ 16c#\ 16e\	.
8r	.	8A\ 8c#\ 8e\	.
8AAA/J 8AA/	.	8r	.
=23	=23	=23	=23
8EE/L 8E/	[<2c#/ [2cc#/	8.r	<
8r	.	.	.
.	.	16g\ 16a\	.
8r	.	8g\ 8a\	.
8AAA/J 8AA/	.	8r	.
*	*v	*v	*
=24	=24	=24
!	!LO:TX:t=P:problem:klamra łukowa i 3	!
8EE/L 8E/	12c#/L] 12cc#/]	.
.	12e/ 12ee/	.
8r	.	.
.	12c#/J 12cc#/	[
!	!LO:TX:t=P:problem:klamra łukowa i 3	!
8r	12B/L 12b/	>
.	12c#/ 12cc#/	.
8AAA/J 8AA/	.	.
.	24r	.
.	24A/Jk 24a/	]
!!LO:PB:g=original
=25	=25	=25
*	*^	*
8DD/L 8D/	2B/ 2b/	8.r	.
8r	.	.	.
.	.	16d\ 16f#\	.
8r	.	8d\ 8f#\	.
8AAA/J 8AA/	.	8r	.
=26	=26	=26	=26
8DD/L 8D/	2F#/ 2f#/	8.r	.
8r	.	.	.
.	.	16A\ 16d\	.
8r	.	8A\ 8d\	.
8AAA/J 8AA/	.	8r	.
=27	=27	=27	=27
8AAA/L 8AA#X/	[<2F#/ [2f#/	8.r	.
8r	.	.	.
.	.	16c#\ 16e\	.
8r	.	8c#\ 8e\	.
8FFF#/J 8FF#/	.	8r	<
*	*v	*v	*
=28	=28	=28
!	!LO:TX:t=P:problem:klamra łukowa i 3	!
8AAA#X/L 8AA#X/	12F#/L] 12f#/]	.
.	12G#X/ 12e/ 12g#X/	.
8r	.	.
.	12A/J 12e/ 12a/	.
!	!LO:TX:t=P:problem:klamra łukowa i 3	!
8r	12B/L 12e/ 12b/	.
.	12c#/ 12e/ 12cc#/	.
8FFF#/J 8FF#/	.	.
.	24r	.
.	24e/Jk 24ee/	[
=29	=29	=29
*	*^	*
8BBB/L 8BB/	2d/ 2dd/	8.r	.
8r	.	.	f
.	.	16f#\ 16b\	.
8r	.	8f#\ 8b\	.
8FFF#/J 8FF#/	.	8r	.
!!LO:LB:g=original
=30	=30	=30	=30
8BBB/L 8BB/	2B/ 2b/	8.r	.
8r	.	.	.
.	.	16d\ 16f#\	.
8r	.	8d\ 8f#\	.
8AAA/J 8AA/	.	8r	.
=31	=31	=31	=31
8GGG#X/L 8GG#X/	[<2E/ [2e/	8.r	.
8r	.	.	.
.	.	16B\ 16d\	.
8r	.	8B\ 8d\	.
8EEE/J 8EE/	.	8r	.
*	*v	*v	*
=32	=32	=32
8GGG#X/L 8GG#X/	16E/LL] 16e/]	<
.	16E/ 16e/ 16f#/	.
8r	16F#/ 16d/ 16f#/	.
.	16G#X/JJ 16e/ 16g#X/	.
8r	16A/LL 16e/ 16a/	.
.	16B/ 16d/ 16b/	.
8EEE/J 8EE/	16c#/ 16e/ 16cc#/	.
.	16d/JJ 16e/ 16dd/	[
=33	=33	=33
*	*^	*
8AAA/L 8AA/	2c#/ 2cc#/	8.r	f
8r	.	.	.
.	.	16e\ 16a\	.
8r	.	8e\ 8a\	.
8EEE/J 8EE/	.	8r	.
!!LO:LB:g=original
=34	=34	=34	=34
8AAA/L 8AA/	2A/ 2a/	8.r	.
16CC#/L 16C#/	.	.	.
[16GG/JJ [16G/	.	16c#\ 16e#X\	.
16GG/LL] 16G/]	.	4c#\ 4e#\	<
16FF#/ 16F#/	.	.	.
16GG/ 16G/	.	.	.
16AAA/JJ 16AA/	.	.	[
=35	=35	=35	=35
8.DD/ 8.D/	2dd/ 2ddd/	8.r	ff
16A\ 16d\ 16f#\	.	16ff#\ 16aa\	.
8A\ 8d\ 8f#\	.	8ff#\ 8aa\	.
8AAA/ 8AA/	.	8r	.
*	*v	*v	*
=36	=36	=36
!	!LO:TX:t=P:problem:klamra łukowa i 3	!
8.DD/ 8.D/	12dd\L 12ddd\	.
.	12ee\ 12ff#\ 12aa\ 12eee\	.
.	12dd\J 12ff#\ 12aa\ 12ddd\	.
16A\ 16d\ 16f#\	.	.
!	!LO:TX:t=P:problem:klamra łukowa i 3	!
8A\ 8d\ 8f#\	12cc#\L 12ff#\ 12aa\ 12ccc#\	.
.	12dd\ 12ff#\ 12aa\ 12ddd\	.
8AAA/ 8AA/	.	.
.	24r	.
.	24b\Jk 24bb\	.
=37	=37	=37
*	*^	*
8.EE/ 8.E/	2cc#/ 2ccc#/	8.r	.
16A\ 16c#\ 16g\	.	16gg\ 16aa\	.
8A\ 8c#\ 8g\	.	8gg\ 8aa\	.
8AAA/ 8AA/	.	8r	.
=38	=38	=38	=38
8.EE/ 8.E/	2g/ 2gg/	8.r	.
!	!	!LO:N:vis=4	!
16G\ 16A\ 16c#\	.	16g\ 16cc#\ 16ee\	.
8G\ 8A\ 8c#\	.	8g\ 8cc#\ 8ee\	.
8AAA/ 8AA/	.	8r	.
!!LO:LB:g=original
=39	=39	=39	=39
8.EE/ 8.E/	[<2cc#/ [2ccc#/	8.r	.
16G\ 16A\ 16c#\	.	16gg\ 16aa\	.
8G\ 8A\ 8c#\	.	8gg\ 8aa\	.
8AAA/ 8AA/	.	8r	.
*	*v	*v	*
=40	=40	=40
!LO:N:vis=8	!LO:TX:t=P:problem:klamra łukowa i 3	!
8.EE/ 8.E/	12cc#\L] 12ccc#\]	.
.	12ee\ 12aa\ 12ccc#\ 12eee\	.
.	12cc#\J 12ee\ 12aa\ 12ccc#\	.
16G\ 16A\ 16c#\	.	.
!	!LO:TX:t=P:problem:klamra łukowa i 3	!
8G\ 8A\ 8c#\	12b\L 12ee\ 12gg\ 12bb\	.
.	12cc#\ 12ee\ 12aa\ 12ccc#\	.
8AAA/ 8AA/	.	.
.	24r	.
.	24a\Jk 24aa\	.
=41	=41	=41
*	*^	*
8.DD/ 8.D/	8.rB	2b\ 2bb\	.
16F#\ 16A\ 16d\	16dd\ 16ff#\	.	.
8F#\ 8A\ 8d\	8dd\ 8ff#\	.	.
8AAA/ 8AA/	8r	.	.
=42	=42	=42	=42
8.DD/ 8.D/	2f#/ 2ff#/	8.r	.
16F#\ 16A\ 16d\	.	16a\ 16dd\	.
8F#\ 8A\ 8d\	.	8a\ 8dd\	.
8AAA/ 8AA/	.	8r	.
!!LO:LB:g=original
=43	=43	=43	=43
8.BBB-X/ 8.BB-X/	[<2dd/ [2ddd/	8.r	.
16Fn\ 16A-X\ 16B-X\ 16d\	.	16ffn\ 16aa-X\ 16bb-X\	.
8F\ 8A-\ 8B-\ 8d\	.	8ff\ 8aa-\ 8bb-\	.
8FFFn/ 8FFn/	.	8r	.
*	*v	*v	*
=44	=44	=44
(12BBB-X/ 12BB-X/	12dd\L] 12ddd\]	.
12c#\L	12cc#\ 12ccc#\	.
12d\J	12dd\J 12ddd\	.
12e\L	12ee\L 12eee\	.
12d\J)	12dd\ 12ddd\	.
12r	24r	.
.	24b-X\Jk 24bb-X\	.
=45	=45	=45
*	*^	*
8.AAA/ 8.AA/	2dd/ 2ddd/	8.r	.
16F#\ 16A\ 16d\	.	16ff#\ 16aa\	.
8F#\ 8A\ 8d\	.	8ff#\ 8aa\	.
8AAA/ 8AA/	.	8r	.
=46	=46	=46	=46
8.FF#/	2a/ 2aa/	8.r	.
16D\ 16A\ 16d\	.	16dd\	.
8D\ 8A\ 8d\	.	8dd\	.
8FF#/	.	8r	.
!!LO:LB:g=original
=47	=47	=47	=47
8.EEE/ 8.EE/	[<2f#/ [2ff#/	8.r	.
!	!	!LO:SIC:s=16g#\ 16b\ 16dd\	!
16E\ 16G#X\ 16d\	.	16g\ 16b\ 16dd\	.
!	!	!LO:SIC:s=8g#\ 8b\ 8dd\	!
8E\ 8G#\ 8d\	.	8g\ 8b\ 8dd\	.
8EEE/ 8EE/	.	8r	.
*	*v	*v	*
=48	=48	=48
*^	*	*
12r	2AAA\ 2AA\	12f#\L] 12ff#\]	.
12E/L	.	12e\ 12a\ 12cc#\ 12ee\	.
12F#/J	.	12f#\J 12a\ 12cc#\ 12ff#\	.
12A/L	.	12a\L 12cc#\ 12aa\	.
12F#/	.	12f#\ 12cc#\ 12ff#\	.
12A/J	.	12a\J 12cc#\ 12aa\	.
*v	*v	*	*
=49	=49	=49
8.DD/L 8.D/	2d/ [2f#/ [2a/ [2dd/	.
16BB/Jk 16B/	.	.
8AA/L 8A/	.	.
8FF#/J 8F#/	.	.
=50	=50	=50
8DD/ 8D/	8f#/] 8a/] 8dd/]	.
8r	8r	.
8DD^/ 8AA/ 8D/	8dd^\ 8ff#\ 8aa\ 8ddd\	fz
8r	8r	.
==	==	==
*-	*-	*-
!!!system-decoration: {(s1,s2)}
!!!RDF**kern: > = above
!!!RDF**kern: < = below
!!!ENC: Anastazja Marusiak
!!!END: 2023-09-09
!!!ENC: Leszek Kubiak
!!!END: 2023-09-30
!!!ENC: Craig Stuart Sapp
!!!ONB: added sic
!!!END: 2023-10-16
